icons/svg/elevation-decline.svg

﻿<?xml version="1.0" encoding="utf-8"?>
<!DOCTYPE svg PUBLIC "-//W3C//DTD SVG 1.1//EN" "http://www.w3.org/Graphics/SVG/1.1/DTD/svg11.dtd">
<svg xmlns="http://www.w3.org/2000/svg" xmlns:xlink="http://www.w3.org/1999/xlink" version="1.1" baseProfile="full" width="24" height="24" viewBox="0 0 24.00 24.00" enable-background="new 0 0 24.00 24.00" xml:space="preserve">
	<path fill="#000000" fill-opacity="1" stroke-width="0.2" stroke-linejoin="round" d="M 21,21L 2.99999,21L 3,11.25L 9.45454,14.9765L 13.2225,12.8011L 21,17.2915L 21,21 Z M 3,8.94061L 3,6.75L 9.45454,10.4765L 13.2225,8.30111L 21,12.7915L 21,14.9821L 13.2225,10.4917L 9.45455,12.6671L 3,8.94061 Z "/>
</svg>

<svg xmlns="http://www.w3.org/2000/svg" version="1.1" baseProfile="full" width="24" height="24" viewBox="0 0 24.00 24.00" xml:space="preserve"><path fill="#000" fill-opacity="1" stroke-width=".2" stroke-linejoin="round" d="M21 21H3v-9.75l6.455 3.726 3.768-2.175L21 17.29v3.71zM3 8.94V6.75l6.455 3.726 3.768-2.175L21 12.79v2.192l-7.777-4.49-3.768 2.175L3 8.94z"/></svg>
